Suru++-Ubuntu/apps/symbolic/tomahawk-symbolic.svg

<svg width="16" height="16" version="1" xmlns="http://www.w3.org/2000/svg">
 <defs>
  <style type="text/css">.ColorScheme-Text { color:#5c616c; } .ColorScheme-Highlight { color:#5294e2; } .ColorScheme-ButtonBackground { color:#808080; }</style>
 </defs>
 <path class="ColorScheme-ButtonBackground" d="m8.0423743 0.45762751a7.5000014 7.4999998 0 0 0-7.5000014 7.4999998 7.5000014 7.4999998 0 0 0 7.5000014 7.5000007 7.5000014 7.4999998 0 0 0 7.4999987-7.5000007 7.5000014 7.4999998 0 0 0-7.4999987-7.4999998zm0 1.8749999c3.1065987 0 5.6249987 2.518406 5.6249987 5.6249999-0.0026 1.5976882-0.684186 3.1188757-1.875 4.1839707v-6.0590646h-1.8749984v7.1722546c-0.6018747 0.21562-1.2356247 0.32625-1.8750003 0.32812-3.1065944 0-5.6250014-2.51812-5.6250014-5.6249997 0-3.1065933 2.518407-5.6249998 5.6250014-5.6249998zm1.8750003 6.0937499-2.3437507-1.640625-2.34375-1.6406249v6.5625006l2.34375-1.640625z" style="fill:currentColor"/>
</svg>

<svg xmlns="http://www.w3.org/2000/svg" width="16" height="16" version="1">
 <defs>
  <style id="current-color-scheme" type="text/css">
   .ColorScheme-Text { color:#5c616c; } .ColorScheme-Highlight { color:#5294e2; } .ColorScheme-ButtonBackground { color:#808080; }
  </style>
 </defs>
 <path style="fill:currentColor;" class="ColorScheme-ButtonBackground" d="M 8.0423743,0.45762751 A 7.5000014,7.4999998 0 0 0 0.54237289,7.9576273 7.5000014,7.4999998 0 0 0 8.0423743,15.457628 7.5000014,7.4999998 0 0 0 15.542373,7.9576273 7.5000014,7.4999998 0 0 0 8.0423743,0.45762751 Z m 0,1.87499989 c 3.1065987,0 5.6249987,2.518406 5.6249987,5.6249999 -0.0026,1.5976882 -0.684186,3.1188757 -1.875,4.1839707 V 6.0825334 H 9.9173746 v 2.3437499 4.8285047 c -0.6018747,0.21562 -1.2356247,0.32625 -1.8750003,0.32812 -3.1065944,0 -5.6250014,-2.51812 -5.6250014,-5.6249997 0,-3.1065933 2.518407,-5.6249998 5.6250014,-5.6249998 z M 9.9173746,8.4263773 7.5736239,6.7857523 5.2298739,5.1451274 v 3.2812499 3.2812507 l 2.34375,-1.640625 z"/>
</svg>
